!!!!SEGMENT: pl-kk--kk-i-1--032_anonim--alleluia-veni-regina-nostra.krn
!!!cenid: 15xx:745
!!!COM: Anonim
!!!COM-rismID: pe30004985
!!!CDT:
!!!CNT:
!!!OTL: Alleluia, veni regina nostra
!!!PDT:
!!!AGN:
!!!SMS-siglum: PL-Kk
!!!SMS-shelfmark: Kk.I.1
!!!SMS-shelfwork: 032 W
!!!SMS-variant:
!!!SMS-altvar:
!!!NIFC-rismSourceID: 300257954
!!!NIFC-rismChildID: 300257986
!!!NIFC-islandoraID: pl-kk:1
!!!URL-pdf-islandora: https://repozytorium.nifc.pl/islandora/object/pl-kk%3A1/datastream/PDF/view
!!!URL-scan: https://polish.musicsources.pl/pl/lokalizacje/galeria/rekopisy/5736 @EN{Scan on Polish Music Sources Website} @PL{Skany w portalu Dziedzictwo Muzyki Polskiej w otwartym dostępie}
!!!ONB-nifc: UWAGA: Cantus (s. 122v-123r, skan 0125), Altus (s. 117v-118v, skan 0311-0312), Tenor (s. 104r-v, skan 0494-0495), Bassus (s. 111r-v, skan 0673-0674).
!!!AIN: 1 alto 1 bass 1 soprn 1 tenor
!!!key: F
**kern	**text	**kern	**text	**kern	**text	**kern	**text
*part4	*part4	*part3	*part3	*part2	*part2	*part1	*part1
*staff4	*staff4	*staff3	*staff3	*staff2	*staff2	*staff1	*staff1
*I"BASSVS	*	*I"TENOR	*	*I"ALTVS	*	*I"CANTVS	*
*I'B	*	*I'T	*	*I'A	*	*I'S	*
*Ibass	*	*Itenor	*	*Ialto	*	*Isoprn	*
*ICvox	*	*ICvox	*	*ICvox	*	*ICvox	*
*clefF4	*	*clefC4	*	*clefC4	*	*clefC3	*
*k[b-]	*	*k[b-]	*	*k[b-]	*	*k[b-]	*
*F:	*	*F:	*	*F:	*	*F:	*
*M2/1	*	*M2/1	*	*M2/1	*	*M2/1	*
*met(C)	*	*met(C)	*	*met(C)	*	*met(C)	*
*all\right	*	*all\right	*	*all\right	*	*all\right	*
=1-	=1-	=1-	=1-	=1-	=1-	=1-	=1-
*xywh-#673:6530,704,3635,776	*	*xywh-#494:6059,2081,4110,784	*	*xywh-#311:1983,2198,3627,839	*	*xywh-#125:1490,1252,4171,834	*
!	!	!LO:TX:a:i:t=Pro t(em)p(o)re\nPaschali	!	!	!	!	!
1C	Al-	1C	Al-	1G	Al-	1c	Al-
1FF	-le-	1F	-le-	4A/	-le-	2c/	-le-
.	.	.	.	4G/	.	.	.
*	*	*	*	*	*	*2\right	*
.	.	.	.	4F/	.	2.f\	.
.	.	.	.	4E/	.	.	.
=2-	=2-	=2-	=2-	=2-	=2-	=2-	=2-
*lig	*	*lig	*	*	*	*	*
1BB-	-lu-	1F	-lu-	1.D	.	.	.
.	.	.	.	.	.	4e\	.
.	.	.	.	.	.	4d\	.
.	.	.	.	.	.	4c/	.
*col	*	*	*	*	*	*	*
2.GG/	.	1G	.	.	.	4B-/	.
.	.	.	.	.	.	4c/	.
.	.	.	.	2.D/	-lu-	1d\	.
*Xlig	*	*Xlig	*	*	*	*	*
4AA/	-ia	.	.	.	.	.	.
*Xcol	*	*	*	*	*	*	*
=3-	=3-	=3-	=3-	=3-	=3-	=3-	=3-
*	*ij	*lig	*	*	*	*	*
2BB-/	Al-	1F	.	.	.	.	.
.	.	.	.	4E/	.	.	.
2AA/	-le-	.	.	1F	.	2c/	.
1GG	-lu-	1B-	.	.	.	2B-/	-lu-
.	.	.	.	2E/	.	2G/	-ia
*	*	*Xlig	*	*	*	*	*
=4-	=4-	=4-	=4-	=4-	=4-	=4-	=4-
*	*	*lig	*	*	*	*	*
2FF/	-ia	1A	.	1F	.	1c	.
1F	Al-	.	.	.	.	.	.
.	.	1G	.	1C	-ia	2r	.
*	*	*	*	*	*	*	*ij
2E/	-le-	.	.	.	.	2c/	Al-
*	*	*Xlig	*	*	*	*	*
=5-	=5-	=5-	=5-	=5-	=5-	=5-	=5-
2D/	-lu-	1A	.	2r	.	2d\	-le-
*	*	*	*	*	*ij	*	*
2C/	.	.	.	1c	Al-	2e\	.
*	*	*lig	*	*	*	*	*
1D	-ia	1F	.	.	.	2f\	.
*	*Xij	*	*	*2\right	*	*	*
*	*	*	*	*	*	*custos:e	*
.	.	.	.	2B-\	.	2d\	.
!	!	!	!	!	!	!LO:LB:g=original	!
=6-	=6-	=6-	=6-	=6-	=6-	=6-	=6-
*	*	*	*	*	*	*xywh-#125:1444,1965,4194,851	*
2C/	al-	1G	.	2c\	.	2e\	.
2BB-/	-le-	.	.	2d\	.	1f	-lu-
*	*	*Xlig	*	*	*	*	*
*	*	*lig	*	*	*	*	*
*	*	*	*	*custos:A	*	*	*
1C	-lu-	1G	-iia	1c	.	.	.
.	.	.	.	.	.	2e\	.
!	!	!	!	!LO:LB:g=original	!	!	!
=7-	=7-	=7-	=7-	=7-	=7-	=7-	=7-
*custos:BB	*	*	*	*	*	*	*
*	*	*	*	*xywh-#311:1498,2944,4187,723	*	*	*
2FF/	-ia	[0Fl\;	.	2A/	.	2f\	-ia
*	*ij	*	*	*	*	*	*
*xywh-#673:5926,1458,4233,839	*	*	*	*	*	*	*
!LO:LB:g=original	!	!	!	!	!	!	!
2BB-/	al-	.	.	4F/	-le-	2d/	Al-
.	.	.	.	4G/	.	.	.
2AA/	.	.	.	4A/	.	2c/	-le-
.	.	.	.	4B-\	.	.	.
2FF/	-le-	.	.	2c\	.	2A/	.
*	*	*Xlig	*	*	*	*	*
=8-	=8-	=8-	=8-	=8-	=8-	=8-	=8-
1BB-	-lu-	0F_	.	2F/	.	1d	-lu-
.	.	.	.	1B-	-lu-	.	.
[1FFl;	-ia	.	.	.	.	[1cl;	-ia
*	*Xij	*	*	*	*	*	*Xij
.	.	.	.	4A/	.	.	.
.	.	.	.	4G/	.	.	.
=9-	=9-	=9-	=9-	=9-	=9-	=9-	=9-
0FF]	.	0F]	.	0Al;	-ia	0c]	.
*	*	*	*	*	*Xij	*	*
=10-	=10-	=10-	=10-	=10-	=10-	=10-	=10-
*lig	*	*lig	*	*	*	*	*
1F	Ve-	1F	Ve-	1c	ve-	2r	.
.	.	.	.	.	.	1f	ve-
1C	.	1G	.	2.c\	-ni	.	.
.	.	.	.	.	.	2e\	.
.	.	.	.	4B-\	.	.	.
*Xlig	*	*Xlig	*	*	*	*	*
=11-	=11-	=11-	=11-	=11-	=11-	=11-	=11-
*	*	*lig	*	*	*	*	*
2.D/	.	1F	.	4A/	.	2.f\	.
.	.	.	.	4G/	.	.	.
.	.	.	.	1F	.	.	.
4C/	.	.	.	.	.	4e\	.
2BB-/	.	1B-	.	.	.	4d\	.
.	.	.	.	.	.	4c/	.
2GG/	.	.	.	2.G/	.	2d/	.
*	*	*Xlig	*	*	*	*	*
=12-	=12-	=12-	=12-	=12-	=12-	=12-	=12-
*	*	*lig	*	*	*	*	*
2AA/	.	1A	.	.	.	0c	-ni
.	.	.	.	4F/	.	.	.
2FF/	.	.	.	1F	.	.	.
*	*	*custos:F	*	*	*	*	*
1C	.	1G	.	.	.	.	.
*	*	*	*	*custos:F	*	*	*
.	.	.	.	2E/	.	.	.
*	*	*Xlig	*	*	*	*	*
!	!	!LO:LB:g=original	!	!LO:PB:g=original	!	!	!
=13-	=13-	=13-	=13-	=13-	=13-	=13-	=13-
*	*	*xywh-#494:6035,2822,4129,818	*	*xywh-#311:6030,679,4181,874	*	*	*
2FF/	-ni	1F	-ni	2F/	.	1r	.
1BB-	Re-	.	.	1D	Re-	.	.
*	*	*lig	*	*	*	*	*
*	*	*	*	*	*	*custos:f	*
.	.	1F	re-	.	.	2r	.
*	*	*	*	*	*	*xywh-#125:1428,2712,4182,938	*
!	!	!	!	!	!	!LO:LB:g=original	!
2AA/	.	.	.	2C/	-gi-	1f\	re-
=14-	=14-	=14-	=14-	=14-	=14-	=14-	=14-
2BB-/	.	1G	.	2D/	-na	.	.
2C/	-gi-	.	.	2E/	.	2e\	-gi-
*	*	*Xlig	*	*	*	*	*
*	*	*lig	*	*	*	*lig	*
2FF/	-na	1A	-gi-	2F/	.	1c	.
2AA/	re-	.	.	1E/	.	.	.
=15-	=15-	=15-	=15-	=15-	=15-	=15-	=15-
*custos:AA	*	*	*	*	*	*	*
1BB-	-gi-	1G	.	.	.	1d	.
.	.	.	.	2D/	.	.	.
*	*	*Xlig	*	*	*	*Xlig	*
*xywh-#673:5915,2183,4256,776	*	*	*	*	*	*	*
!LO:LB:g=original	!	!	!	!	!	!	!
2AA/	-na	1A	-na	2E/	.	2c/	-na
2.FF/	no-	.	.	1A\	no-	1f\	.
=16-	=16-	=16-	=16-	=16-	=16-	=16-	=16-
*	*	*lig	*	*	*	*	*
.	.	1c	no-	.	.	.	.
4GG/	.	.	.	.	.	.	.
4AA/	.	.	.	4G/	.	4e\	no-
4BB-/	.	.	.	4F/	.	4d\	.
2C/	.	1A	.	2E/	.	2e\	.
2D/	.	.	.	2F/	.	1d\	.
*	*	*Xlig	*	*	*	*	*
=17-	=17-	=17-	=17-	=17-	=17-	=17-	=17-
1E	.	1G	.	2.G/	.	.	.
.	.	.	.	.	.	2c\	.
.	.	.	.	4E/	.	.	.
*	*	*lig	*	*	*	*	*
2D/	.	1A	.	4F/	.	2f\	.
.	.	.	.	4D/	.	.	.
!	!	!	!	!	!	!LO:N:vis=4.	!
2C/	.	.	.	2E/	.	2.e\	.
=18-	=18-	=18-	=18-	=18-	=18-	=18-	=18-
2BB-/	.	1B-	.	2F/	.	.	.
.	.	.	.	.	.	4d\	.
2GG/	.	.	.	2G/	.	1d	.
*	*	*Xlig	*	*	*	*	*
*	*	*	*	*custos:A	*	*	*
1AA	-ſtra	1A	-ſtra	2E/	.	.	.
*	*	*	*	*xywh-#311:6042,1419,4140,810	*	*	*
!	!	!	!	!LO:LB:g=original	!	!	!
.	.	.	.	2A/	.	2c/	.
=19-	=19-	=19-	=19-	=19-	=19-	=19-	=19-
*lig	*	*lig	*	*	*	*	*
1D	ve-	1F	ue-	1A	-ſtra	2d\	.
.	.	.	.	.	.	2f\	-ſtra
1C	.	1G	.	2r	.	1e	.
.	.	.	.	1c\	ve-	.	.
*Xlig	*	*Xlig	*	*	*	*	*
=20-	=20-	=20-	=20-	=20-	=20-	=20-	=20-
*	*	*lig	*	*	*	*	*
1FF	-ni	1F	.	.	.	2r	.
.	.	.	.	2A\	.	1c	ve-
2r	.	1D	.	1F	-ni	.	.
*	*	*	*	*	*	*custos:c	*
1F\	ve-	.	.	.	.	2B-/	-ni
*	*	*Xlig	*	*	*	*	*
!	!	!	!	!	!	!LO:PB:g=original	!
=21-	=21-	=21-	=21-	=21-	=21-	=21-	=21-
*	*	*	*	*	*	*xywh-#125:6079,668,4182,729	*
.	.	1C	.	1G	do-	1c	do-
*2\right	*	*	*	*	*	*	*
2E\	-ni	.	.	.	.	.	.
1F	do-	1D	-ni	2F/	.	1A	-mi-
.	.	.	.	1c\	.	.	.
=22-	=22-	=22-	=22-	=22-	=22-	=22-	=22-
*	*	*lig	*	*	*	*	*
1D	-mi-	1F	Do-	.	.	2F/	-na
.	.	.	.	2B-\	.	1f	ue-
1C	-(n)a	1G	.	1c	.	.	.
.	.	.	.	.	.	2e\	-ni
*	*	*Xlig	*	*	*	*	*
=23-	=23-	=23-	=23-	=23-	=23-	=23-	=23-
*	*ij	*	*	*	*	*	*
*custos:GG	*	*	*	*	*	*	*
1FF	ve-	1A	.	1A	-mi-	1f	do-
*	*	*lig	*	*	*	*	*
*xywh-#673:5924,2936,4221,701	*	*	*	*	*	*	*
!LO:LB:g=original	!	!	!	!	!	!	!
1GG	-ni	1B-	.	1G	-na	1d	-(m)i-
=24-	=24-	=24-	=24-	=24-	=24-	=24-	=24-
*	*	*custos:G	*	*	*	*	*
2AA/	do-	1A	.	2r	.	1c	-(n)a
2FF/	-mi-	.	.	2c\	.	.	.
*	*	*Xlig	*	*	*	*	*
*	*	*lig	*	*	*	*	*
*	*	*xywh-#495:1468,478,4145,923	*	*	*	*	*
!	!	!LO:PB:g=original	!	!	!	!	!
2C/	-(n)a	1G	-mi-	2.c\	in	2r	.
*	*Xij	*	*	*	*	*	*
2C/	in	.	.	.	.	2e\	in
.	.	.	.	4B-\	.	.	.
=25-	=25-	=25-	=25-	=25-	=25-	=25-	=25-
2.D/	hor-	1F	.	4A/	hor-	2.f\	.
.	.	.	.	4G/	.	.	.
.	.	.	.	2A/	.	.	.
4C/	.	.	.	.	.	4e\	hor-
*	*	*Xlig	*	*	*	*	*
2BB-/	.	1F	-na	2B-\	.	2d/	.
2AA/	.	.	.	2c\	.	2c/	.
=26-	=26-	=26-	=26-	=26-	=26-	=26-	=26-
*	*	*	*	*custos:c	*	*	*
1BB-	.	1F	in	1d	.	1B-	.
*	*	*	*	*xywh-#311:6018,2154,4158,816	*	*	*
!	!	!	!	!LO:LB:g=original	!	!	!
2FF/	-tum	0c	.	1c	-tum	2A/	.
*	*ij	*	*	*	*	*	*
2F\	in	.	.	.	.	2A/	-tum
=27-	=27-	=27-	=27-	=27-	=27-	=27-	=27-
*	*	*	*	*	*	*	*ij
2E\	hor-	.	.	0r	.	2G/	in
2F\	.	.	.	.	.	2A/	hor-
*	*	*lig	*	*	*	*	*
2.G\	.	1B-	hor-	.	.	4B-/	.
.	.	.	.	.	.	4c/	.
.	.	.	.	.	.	4d\	.
*	*	*	*	*	*	*custos:f	*
4F\	.	.	.	.	.	4e\	.
!	!	!	!	!	!	!LO:LB:g=original	!
=28-	=28-	=28-	=28-	=28-	=28-	=28-	=28-
*	*	*	*	*	*	*xywh-#125:6096,1387,4177,764	*
4D\	.	1A	.	2r	.	2f\	.
4E\	.	.	.	.	.	.	.
*	*	*	*	*	*ij	*	*
1F	.	.	.	1A	in	2.d\	.
*	*	*Xlig	*	*	*	*	*
*	*	*lig	*	*	*	*	*
.	.	1c	.	.	.	.	.
.	.	.	.	.	.	4c\	.
2E\	.	.	.	2G/	.	1c\	.
=29-	=29-	=29-	=29-	=29-	=29-	=29-	=29-
2F\	.	1d	.	2A/	hor-	.	.
*custos:C	*	*	*	*	*	*	*
2G\	.	.	.	2B-\	.	2B-/	.
*	*	*Xlig	*	*	*	*	*
*	*	*lig	*	*	*	*	*
*xywh-#674:1444,637,4227,822	*	*	*	*	*	*	*
!LO:PB:g=original	!	!	!	!	!	!	!
2C/	-tum	1c	-tum	1G	.	2c/	-tum
*	*Xij	*	*	*	*	*	*Xij
2C/	o-	.	.	.	.	2e\	o-
=30-	=30-	=30-	=30-	=30-	=30-	=30-	=30-
2.D/	-do-	1A	.	2F/	-tum	2.f\	-do-
*	*	*	*	*	*Xij	*	*
.	.	.	.	4D/	o-	.	.
4C/	.	.	.	4E/	.	4e\	.
*	*	*Xlig	*	*	*	*	*
4D/	.	1F	o-	4F/	.	2d\	.
4E/	.	.	.	4G/	.	.	.
1F\	.	.	.	2A/	.	2.c/	.
=31-	=31-	=31-	=31-	=31-	=31-	=31-	=31-
*	*	*lig	*	*	*	*	*
.	.	1G	-do-	1G	.	.	.
.	.	.	.	.	.	4d\	.
2E/	.	.	.	.	.	2e\	.
2D/	.	1A	.	4F/	-do-	2f\	.
.	.	.	.	4G/	.	.	.
2C/	.	.	.	4A/	.	2e\	.
.	.	.	.	4G/	.	.	.
*	*	*Xlig	*	*	*	*	*
=32-	=32-	=32-	=32-	=32-	=32-	=32-	=32-
*lig	*	*	*	*	*	*	*
1BB-	.	1B-	.	4G/	.	1d	.
.	.	.	.	4F/	.	.	.
.	.	.	.	1F	.	.	.
*	*	*lig	*	*	*	*	*
1C	.	1G	-ris	.	.	1c	-ris
.	.	.	.	2E/	.	.	.
*Xlig	*	*	*	*	*	*	*
=33-	=33-	=33-	=33-	=33-	=33-	=33-	=33-
*	*	*	*	*custos:D	*	*	*
2FF/	-ris	1F	.	2F/	-ris	1r	.
*	*	*	*	*xywh-#311:6042,2903,4076,787	*	*	*
!	!	!	!	!LO:LB:g=original	!	!	!
1BB-	ſu-	.	.	1D	ſu-	.	.
*	*	*Xlig	*	*	*	*	*
*	*	*lig	*	*	*	*	*
.	.	1F	ſu-	.	.	2r	.
2AA/	-per	.	.	2C/	-per	1f\	ſu-
=34-	=34-	=34-	=34-	=34-	=34-	=34-	=34-
2BB-/	.	1G	.	2D/	.	.	.
*	*	*	*	*	*	*custos:d	*
2C/	om-	.	.	2E/	om-	2e\	-per
*	*	*Xlig	*	*	*	*	*
*	*	*	*	*	*	*xywh-#125:6090,2105,4229,753	*
!	!	!	!	!	!	!LO:LB:g=original	!
2D/	.	1F	.	2F/	-ni-	2.d\	om-
4BB-/	.	.	.	2D/	-a	.	.
4C/	.	.	.	.	.	4c/	.
=35-	=35-	=35-	=35-	=35-	=35-	=35-	=35-
*	*	*lig	*	*	*ij	*	*
4D/	.	1D	-per	2.F/	ſu-	4B-/	.
4E\	.	.	.	.	.	4G/	.
*custos:E	*	*	*	*	*	*	*
1F	.	.	.	.	.	4A/	.
.	.	.	.	4G/	.	4B-/	.
.	.	1C	.	4A/	.	4c/	.
.	.	.	.	4B-\	.	4d\	.
*xywh-#674:1432,1408,4221,816	*	*	*	*	*	*	*
!LO:LB:g=original	!	!	!	!	!	!	!
2E\	.	.	.	1c\	.	4e\	.
.	.	.	.	.	.	4c/	.
*	*	*Xlig	*	*	*	*	*
=36-	=36-	=36-	=36-	=36-	=36-	=36-	=36-
*	*	*lig	*	*	*	*	*
1D	-ni-	1F	om-	.	.	4d\	.
.	.	.	.	.	.	4e\	.
.	.	.	.	2B-\	.	1f	.
1C	-a	1c	.	2A/	.	.	.
.	.	.	.	4G/	.	2e\	.
.	.	.	.	4F/	.	.	.
*	*	*Xlig	*	*	*	*	*
=37-	=37-	=37-	=37-	=37-	=37-	=37-	=37-
*	*	*lig	*	*	*	*	*
2r	.	1B-	.	1G	.	1d	.
2GG/	a-	.	.	.	.	.	.
*	*	*custos:G	*	*	*	*	*
2AA/	-ro-	1A	.	2E/	-per	1c	-ni-
2FF/	-ma-	.	.	1F/	om-	.	.
*	*	*Xlig	*	*	*	*	*
!	!	!LO:LB:g=original	!	!	!	!	!
=38-	=38-	=38-	=38-	=38-	=38-	=38-	=38-
*	*	*xywh-#495:1439,1234,4197,837	*	*	*	*	*
2C/	-ta	1G	.	.	.	1c	-a
2C/	a-	.	.	2E/	-ni-	.	.
2D/	-ro-	1F	-ni-	2F/	-a	2A/	a-
*	*	*	*	*	*Xij	*	*
*	*	*	*	*custos:A	*	*	*
1BB-/	.	.	.	1B-\	a-	2.d\	-ro-
=39-	=39-	=39-	=39-	=39-	=39-	=39-	=39-
.	.	1F	-a	.	.	.	.
.	.	.	.	.	.	4c/	.
*	*	*	*	*xywh-#312:1350,691,4158,781	*	*	*
!	!	!	!	!LO:PB:g=original	!	!	!
2C/	.	.	.	2.A/	-ro-	1c	.
*lig	*	*lig	*	*	*	*	*
1D	-ma-	1F	a-	.	.	.	.
.	.	.	.	4G/	.	.	.
.	.	.	.	1F/	-ma-	2B-/	-ma-
=40-	=40-	=40-	=40-	=40-	=40-	=40-	=40-
1C	.	1G	.	.	.	0.c	-ta
.	.	.	.	2E/	.	.	.
*Xlig	*	*Xlig	*	*	*	*	*
*	*	*lig	*	*	*	*	*
1FF	-ta	1F	-ro-	1A	-ta	.	.
=41-	=41-	=41-	=41-	=41-	=41-	=41-	=41-
2r	.	1E	.	1G	.	.	.
2C/	a-	.	.	.	.	.	.
*	*	*Xlig	*	*	*	*	*
*	*	*lig	*	*	*	*	*
2AA/	-ro-	1F	.	2A/	.	1r	.
1BB-/	-ma-	.	.	1F/	.	.	.
=42-	=42-	=42-	=42-	=42-	=42-	=42-	=42-
*	*	*	*	*	*	*custos:g	*
.	.	1D	.	.	.	2r	.
*	*	*	*	*	*	*xywh-#125:6092,2843,4177,758	*
!	!	!	!	!	!	!LO:LB:g=original	!
2GG/	.	.	.	2B-\	a-	2g\	a-
*	*	*Xlig	*	*	*	*	*
2AA/	-ta,	1C	.	4A/	-ro-	2e\	-ro-
.	.	.	.	4G/	.	.	.
1FF/	.	.	.	4A/	.	1f\	-ma-
.	.	.	.	4B-\	.	.	.
=43-	=43-	=43-	=43-	=43-	=43-	=43-	=43-
*	*	*lig	*	*	*	*	*
.	.	1F	-ma-	2c\	.	.	.
*custos:AA	*	*	*	*	*	*	*
*xywh-#674:1443,2167,4187,724	*	*	*	*	*	*	*
2BB-/	a-	.	.	2.d\	.	2d\	.
!LO:LB:g=original	!	!	!	!	!	!	!
2AA/	-ro-	1A	.	.	.	2e\	.
.	.	.	.	4c\	.	.	.
2FF/	.	.	.	1c\	.	2f\	.
*	*	*Xlig	*	*	*	*	*
=44-	=44-	=44-	=44-	=44-	=44-	=44-	=44-
*lig	*	*	*	*	*	*	*
1GG	-ma-	1G	.	.	.	1d	-ta
*	*	*	*	*custos:A	*	*	*
.	.	.	.	2B-\	.	.	.
*	*	*lig	*	*	*	*	*
*	*	*	*	*xywh-#312:1326,1408,4175,740	*	*	*
!	!	!	!	!LO:LB:g=original	!	!	!
1AA	.	1c	.	1A	.	2r	.
.	.	.	.	.	.	2c/	.
*Xlig	*	*	*	*	*	*	*
=45-	=45-	=45-	=45-	=45-	=45-	=45-	=45-
*lig	*	*	*	*	*	*	*
1BB-	.	1d	.	2G/	.	2.B-/	a-
.	.	.	.	1F	.	.	.
.	.	.	.	.	.	4A/	-ro-
*	*	*Xlig	*	*	*	*	*
*	*	*lig	*	*	*	*	*
1C	.	1c	.	.	.	2G/	.
.	.	.	.	2E/	.	2G/	.
*Xlig	*	*	*	*	*	*	*
=46-	=46-	=46-	=46-	=46-	=46-	=46-	=46-
2D/	.	1A	.	2F/	.	2F/	.
2AA/	.	.	.	2c\	.	1f	.
*	*	*Xlig	*	*	*	*	*
*	*	*lig	*	*	*	*	*
2BB-/	.	1F	.	4B-\	.	.	.
.	.	.	.	4G/	.	.	.
2D/	-(ta)	.	.	4A/	.	2d\	.
.	.	.	.	4B-\	.	.	.
=47-	=47-	=47-	=47-	=47-	=47-	=47-	=47-
2C/	a-	1G	.	2c\	.	2e\	.
2BB-/	-ro-	.	.	2d\	.	1f	.
*	*	*Xlig	*	*	*	*	*
*	*	*lig	*	*	*	*	*
1C	-ma-	1G	-ta	1c	-ma-	.	.
.	.	.	.	.	.	2e\	-ma-
=48-	=48-	=48-	=48-	=48-	=48-	=48-	=48-
*custos:C	*	*custos:C	*	*custos:G	*	*custos:c	*
0FFl;	-ta	0Fl\;	.	0Al;	-ta	0fl;<	-ta
*	*	*Xlig	*	*	*	*	*
==	==	==	==	==	==	==	==
*-	*-	*-	*-	*-	*-	*-	*-
!!!system-decoration: [(*)]
!!!RDF**kern: < = below
!!!RDF**kern: l = terminal long
!!!ENC: Mateusz Solarz
!!!END: 2022-03-02
!!!ENC: Andrzej Kubiczek
!!!END: 2022-03-12
!!!YEC: Copyright 2022 Narodowy Instytut Fryderyka Chopina (https://polishscores.org)
!!!YEM: License CC-BY-4.0 (https://creativecommons.org/licenses/by/4.0)
!!!IIIF: https://repozytorium.nifc.pl/islandora/object/pl-kk%3A1/datastream/IIIF/view
!!!ENC-iiif: Elżbieta Cabała
!!!END-iiif: 2022-09-04
